src/assets/icons/business.svg

<svg width="24" height="24" viewBox="0 0 24 24" fill="none" xmlns="http://www.w3.org/2000/svg">
  <path d="M17.75 8.75H7.75C6.64543 8.75 5.75 9.64543 5.75 10.75V17.75C5.75 18.8546 6.64543 19.75 7.75 19.75H17.75C18.8546 19.75 19.75 18.8546 19.75 17.75V10.75C19.75 9.64543 18.8546 8.75 17.75 8.75Z" stroke="#314158" stroke-width="1.5" stroke-linecap="round" stroke-linejoin="round"/>
  <path d="M8.75 5.75V7.75C8.75 8.30228 9.19772 8.75 9.75 8.75H14.75C15.3023 8.75 15.75 8.30228 15.75 7.75V5.75" stroke="#314158" stroke-width="1.5" stroke-linecap="round" stroke-linejoin="round"/>
</svg>

<svg fill="none" viewBox="0 0 24 24"><path stroke="currentColor" stroke-linecap="round" stroke-linejoin="round" stroke-width="1.5" d="M17.75 8.75h-10a2 2 0 0 0-2 2v7a2 2 0 0 0 2 2h10a2 2 0 0 0 2-2v-7a2 2 0 0 0-2-2M8.75 5.75v2a1 1 0 0 0 1 1h5a1 1 0 0 0 1-1v-2"/></svg>
